__todo__/vault-icon.svg

<svg height="256" preserveAspectRatio="xMidYMid" viewBox="0 0 256 256" width="256" xmlns="http://www.w3.org/2000/svg"><path d="m-0-0 127.559449 256 128.440551-256zm142.698373 51.3842303h14.858573v14.8585732h-14.858573zm-29.556946 59.3541927h-14.8185234v-14.8185231h14.8185234zm0-22.2678348h-14.8185234v-14.7784731h14.8185234zm0-22.2277847h-14.8185234v-14.8585732h14.8185234zm22.428035 66.7634545h-14.818523v-14.858573h14.818523zm0-22.267835h-14.818523v-14.8185231h14.818523zm0-22.2678348h-14.818523v-14.7784731h14.818523zm0-22.2277847h-14.818523v-14.8585732h14.818523zm7.128911 7.4493116h14.858573v14.8185232h-14.858573zm0 37.0863579v-14.8185231h14.858573v14.8185231z" fill="#ffd814"/></svg>

<?xml version="1.0" encoding="UTF-8"?>
<svg width="256px" height="256px" viewBox="0 0 256 256" version="1.1" xmlns="http://www.w3.org/2000/svg" preserveAspectRatio="xMidYMid">
    <title>Vault</title>
    <g>
        <path d="M-2.84217094e-13,-1.42108547e-14 L127.559449,256 L256,-1.42108547e-14 L-2.84217094e-13,-1.42108547e-14 Z M142.698373,51.3842303 L157.556946,51.3842303 L157.556946,66.2428035 L142.698373,66.2428035 L142.698373,51.3842303 Z M113.141427,110.738423 L98.3229036,110.738423 L98.3229036,95.9198999 L113.141427,95.9198999 L113.141427,110.738423 Z M113.141427,88.4705882 L98.3229036,88.4705882 L98.3229036,73.6921151 L113.141427,73.6921151 L113.141427,88.4705882 Z M113.141427,66.2428035 L98.3229036,66.2428035 L98.3229036,51.3842303 L113.141427,51.3842303 L113.141427,66.2428035 Z M135.569462,133.006258 L120.750939,133.006258 L120.750939,118.147685 L135.569462,118.147685 L135.569462,133.006258 Z M135.569462,110.738423 L120.750939,110.738423 L120.750939,95.9198999 L135.569462,95.9198999 L135.569462,110.738423 Z M135.569462,88.4705882 L120.750939,88.4705882 L120.750939,73.6921151 L135.569462,73.6921151 L135.569462,88.4705882 Z M135.569462,66.2428035 L120.750939,66.2428035 L120.750939,51.3842303 L135.569462,51.3842303 L135.569462,66.2428035 Z M142.698373,73.6921151 L157.556946,73.6921151 L157.556946,88.5106383 L142.698373,88.5106383 L142.698373,73.6921151 Z M142.698373,110.778473 L142.698373,95.9599499 L157.556946,95.9599499 L157.556946,110.778473 L142.698373,110.778473 Z" fill="#FFD814"></path>
    </g>
</svg>
